icons/1_Primary/Groups.io.svg

<svg xmlns="http://www.w3.org/2000/svg" width="1024" height="1024" fill="none">
   <g clip-path="url(#a)">
      <path fill="#9ABEFF" d="M512 1024c282.77 0 512-229.23 512-512S794.77 0 512 0 0 229.23 0 512s229.23 512 512 512Z"/>
      <path fill="#fff" d="M736.87 612.69V411.31a51.8 51.8 0 0 0 29.903-36.097 51.798 51.798 0 0 0-.303-24.097 51.8 51.8 0 0 0-30.803-35.332 51.783 51.783 0 0 0-46.703 4A51.785 51.785 0 0 0 672 336.9H352a51.793 51.793 0 0 0-63.948-20.956 51.801 51.801 0 0 0-30.624 35.711 51.794 51.794 0 0 0 10.91 45.761 51.779 51.779 0 0 0 19.552 14.244v201.47a51.785 51.785 0 0 0-28.963 35.899 51.785 51.785 0 0 0 11.152 44.758A51.794 51.794 0 0 0 312.5 711.9a51.784 51.784 0 0 0 40.04-22.9h320.61a51.818 51.818 0 0 0 63.762 18.672 51.806 51.806 0 0 0 29.719-35.601 51.809 51.809 0 0 0-29.761-59.401v.02ZM664.59 656H361.1a51.795 51.795 0 0 0-40.1-46.31V413.88a51.469 51.469 0 0 0 14.37-6.22l129 118.07a51.805 51.805 0 0 0 12.578 41.553 51.816 51.816 0 0 0 39.78 17.393 51.798 51.798 0 0 0 49.108-38.797 51.795 51.795 0 0 0 .834-22.209l124.84-114.29a51.471 51.471 0 0 0 14.16 5.17v194.9A51.806 51.806 0 0 0 664.59 656ZM669 385.16 550.12 494a51.62 51.62 0 0 0-70.26 1.17L356.27 382a51.385 51.385 0 0 0 3-12.08h305.5a51.381 51.381 0 0 0 4.23 15.24Z"/>
   </g>
   <defs>
      <clipPath id="a">
         <path fill="#fff" d="M0 0h1024v1024H0z"/>
      </clipPath>
   </defs>
</svg>

<svg width="1024" height="1024" viewBox="0 0 1024 1024" fill="none" xmlns="http://www.w3.org/2000/svg">
<g clip-path="url(#clip0_2_2343)">
<path d="M512 1024C794.77 1024 1024 794.77 1024 512C1024 229.23 794.77 0 512 0C229.23 0 0 229.23 0 512C0 794.77 229.23 1024 512 1024Z" fill="#9ABEFF"/>
<path d="M736.87 612.69V411.31C744.341 408.068 750.943 403.11 756.139 396.838C761.335 390.566 764.978 383.157 766.773 375.213C768.568 367.269 768.464 359.013 766.47 351.116C764.475 343.22 760.646 335.905 755.294 329.766C749.942 323.627 743.218 318.836 735.667 315.784C728.116 312.731 719.952 311.503 711.837 312.198C703.722 312.893 695.886 315.492 688.964 319.784C682.042 324.076 676.23 329.94 672 336.9H352C347.747 329.916 341.902 324.039 334.941 319.748C327.981 315.458 320.103 312.876 311.953 312.215C303.803 311.554 295.613 312.832 288.052 315.944C280.491 319.057 273.774 323.915 268.451 330.122C263.129 336.329 259.351 343.708 257.428 351.655C255.505 359.602 255.491 367.892 257.387 375.846C259.284 383.799 263.036 391.191 268.338 397.416C273.639 403.641 280.339 408.522 287.89 411.66V613.13C280.617 616.469 274.216 621.448 269.191 627.677C264.166 633.906 260.652 641.214 258.927 649.029C257.201 656.844 257.31 664.952 259.245 672.718C261.18 680.484 264.888 687.695 270.079 693.787C275.269 699.878 281.801 704.684 289.161 707.827C296.522 710.969 304.51 712.363 312.5 711.9C320.489 711.436 328.263 709.127 335.21 705.153C342.157 701.18 348.089 695.651 352.54 689H673.15C677.628 695.689 683.603 701.243 690.601 705.222C697.599 709.2 705.428 711.492 713.467 711.918C721.506 712.343 729.533 710.889 736.912 707.672C744.291 704.454 750.819 699.562 755.977 693.382C761.136 687.203 764.784 679.906 766.631 672.071C768.479 664.236 768.475 656.078 766.621 648.245C764.766 640.411 761.112 633.118 755.948 626.943C750.784 620.767 744.252 615.881 736.87 612.67V612.69ZM664.59 656H361.1C360.21 645.019 355.842 634.608 348.631 626.28C341.419 617.952 331.74 612.14 321 609.69V413.88C326.079 412.552 330.925 410.454 335.37 407.66L464.37 525.73C463.336 533.154 463.925 540.714 466.097 547.888C468.268 555.062 471.971 561.679 476.948 567.283C481.926 572.887 488.06 577.345 494.928 580.348C501.796 583.35 509.234 584.827 516.728 584.676C524.222 584.526 531.594 582.75 538.335 579.473C545.076 576.197 551.026 571.496 555.774 565.696C560.522 559.896 563.955 553.135 565.836 545.879C567.718 538.623 568.002 531.046 566.67 523.67L691.51 409.38C695.951 411.789 700.722 413.531 705.67 414.55V609.45C694.713 611.731 684.79 617.499 677.385 625.89C669.98 634.281 665.491 644.845 664.59 656ZM669 385.16L550.12 494C540.424 485.288 527.792 480.567 514.76 480.784C501.728 481.001 489.26 486.14 479.86 495.17L356.27 382C357.756 378.11 358.763 374.053 359.27 369.92H664.77C665.385 375.188 666.812 380.329 669 385.16Z" fill="white"/>
</g>
<defs>
<clipPath id="clip0_2_2343">
<rect width="1024" height="1024" fill="white"/>
</clipPath>
</defs>
</svg>
